!! Generated by translation program from file 02
!! 
!! 
!! 
!! 03/30/94 E. Correia
!! WK#:8,1       MV#:1
!! RV 269 / Le Cene No.520, Amsterdam
!! La Primavera
!! 
!! Violino 1
!! 0 0 .
!! Group memberships: sound parts score 
!! sound: part 2 of 5 
!! parts: part 2 of 5 
!! score: part 2 of 5 
**kern
*Violino 1
*k[f#c#g#d#]
*M4/4
*clefG2
*>[A]
*>A
8ee\
=1
8gg#\L
8gg#\J
8gg#\L
16ff#\LL
16ee\JJ
4.bb\
16bb\LL
16aa\JJ
=2
8gg#\L
8gg#\J
8gg#\L
16ff#\LL
16ee\JJ
4.bb\
16bb\LL
16aa\JJ
=3
8gg#\L
16aa\LL
16bb\JJ
8aa\L
8gg#\J
8ff#\L
8dd#\
8b\
8ee\J
=4
8gg#\L
8gg#\J
8gg#\L
16ff#\LL
16ee\JJ
4.bb\
16bb\LL
16aa\JJ
=5
8gg#\L
8gg#\J
8gg#\L
16ff#\LL
16ee\JJ
4.bb\
16bb\LL
16aa\JJ
=6
8gg#\L
16aa\LL
16bb\JJ
8aa\L
8gg#\J
4ff#\
8r
8ee\
=7
8bb\L
16aa\LL
16gg#\JJ
8aa\L
8bb\J
8ccc#\
4bb\
8ee\
=8
8bb\L
16aa\LL
16gg#\JJ
8aa\L
8bb\J
8ccc#\
4bb\
8ee\
=9
8ccc#\
4bb\
8aa\
8gg#\L
16ff#\LL
16ee\JJ
4ff#Tt\
=10
4ee\
8r
8ee\
8bb\L
16aa\LL
16gg#\JJ
8aa\L
8bb\J
=11
8ccc#\
4bb\
8ee\
8bb\L
16aa\LL
16gg#\JJ
8aa\L
8bb\J
=12
8ccc#\
4bb\
8ee\
8ccc#\
4bb\
8aa\
=13
8gg#\L
16ff#\LL
16ee\JJ
4ff#Tt\
4ee\
4r
=14
1r
=15
2r
(4bb'\
4bb'\)
=16
(4bb'\
4bb'\)
(4bb'\
4bb'\)
=17
(8bb'\L
8bb'\
8bb'\
8bb'\J
8bb'\L
8bb'\
8bb'\
8bb'\J)
=18
(8bb'\L
8bb'\
8bb'\
8bb'\J
8bb'\L
8bb'\J
8bb'\L)
16ccc#\LL
16ddd#\JJ
=19
(16eee\LL
16ddd#\
16ccc#\
16bb\JJ
16aa\LL
16gg#\
16ff#\
16ee\JJ)
4r
8r
(8eee\
=20
8eee'\L
8eee'\
8eee'\
8eee'\J)
4.eeTt\
(8eee\
=21
8eee'\L
8eee'\
8eee'\
8eee'\J)
4eeTt\
4gg#Tt\
=22
4r
4gg#Tt\
4r
4gg#Tt\
=23
4r
4gg#Tt\
[4bb\
(16bb\LL]
16eee\)
(16bb\
16ccc#\JJ)
=24
[4bb\
(16bb\LL]
16eee\)
(16bb\
16ccc#\JJ)
(16bb\LL
16eee\)
(16bb\
16ccc#\JJ)
(16bb\LL
16eee\)
(16bb\
16ccc#\JJ)
=25
(16bb\LL
16eee\)
(16bb\
16ccc#\JJ)
(16bb\LL
16eee\)
(16bb\
16ccc#\JJ)
8bb\L
8ee\J
4r
=26
(4eee'\
4eee'\)
2eeeTt\
=27
(4eee'\
4eee'\)
4eeeTt\
8r
8ee\
=28
8bb\L
16aa\LL
16gg#\JJ
8aa\L
8bb\J
8ccc#\
4bb\
8ee\
=29
8bb\L
16aa\LL
16gg#\JJ
8aa\L
8bb\J
8ccc#\
4bb\
8ee\
=30
8ccc#\
4bb\
8aa\
8gg#\L
16ff#\LL
16ee\JJ
4ff#Tt\
=31
8ee\
(16g#/LL
16a/JJ)
(16b/LL
16a/)
(16b/
16a/JJ)
(16g#/LL
16a/)
(16g#/
16a/JJ)
(16b/LL
16a/)
(16b/
16a/JJ)
=32
(16g#/LL
16a/)
(16g#/
16a/JJ)
(16b/LL
16a/)
(16b/
16a/JJ)
(16g#/LL
16a/)
(16g#/
16a/JJ)
(16b\LL
16cc#\)
(16b\
16cc#\JJ)
=33
(16dd#\LL
16ee\)
(16dd#\
16ee\JJ)
(16ff#\LL
16ee\)
(16ff#\
16ee\JJ)
(16dd#\LL
16ee\)
(16dd#\
16ee\JJ)
(16ff#\LL
16ee\)
(16ff#\
16ee\JJ)
=34
(16dd#\LL
16ee\)
(16dd#\
16ee\JJ)
(16ff#\LL
16gg#\)
(16ff#\
16gg#\JJ)
(16aa\LL
16gg#\)
(16aa\
16gg#\JJ)
(16ff#\LL
16aa\)
(16gg#\
16ff#\JJ)
=35
8gg#\L
(16ff#\LL
16ee\JJ)
(16dd#\LL
16cc#\)
(16b\
16a\JJ)
(16g#/LL
16a/)
(16g#/
16a/JJ)
(16b/LL
16a/)
(16b/
16a/JJ)
=36
(16g#/LL
16a/)
(16g#/
16a/JJ)
(16b/LL
16a/)
(16b/
16a/JJ)
(16g#/LL
16a/)
(16g#/
16a/JJ)
(16b/LL
16a/)
(16b/
16a/JJ)
=37
4g#/
8r
8gg#\
2aa\
=38
2gg#\
2ff#\
=39
2gg#\
2aa\
=40
2gg#\
4ff#\
8r
8b\
=41
8ff#\L
16ee\LL
16dd#\JJ
8ee\L
8ff#\J
8gg#\
4ff#\
8b\
=42
8ff#\L
16ee\LL
16dd#\JJ
8ee\L
8ff#\J
8gg#\
4ff#\
8b\
=43
8gg#\
4ff#\
8ee\
8dd#\L
16cc#\LL
16b\JJ
4cc#Tt\
=44
16b/LL
32B/LLL
32B/
32B/
32B/
32B/
32B/JJJ
32B/LLL
32B/
32B/
32B/
32B/
32B/
32B/
32B/JJJ
32B/LLL
32B/
32B/
32B/
32B/
32B/
32B/
32B/JJJ
32B/LLL
32B/
32B/
32B/
32B/
32B/
32B/
32B/JJJ
=45
(32b\LLL
32cc#\
32dd#\
32ee\
32ff#\
32gg#\
32aa\
32bb\JJJ)
4r
(32b\LLL
32cc#\
32dd#\
32ee\
32ff#\
32gg#\
32aa\
32bb\JJJ)
4r
=46
32B/LLL
32B/
32B/
32B/
32B/
32B/
32B/
32B/JJJ
32B/LLL
32B/
32B/
32B/
32B/
32B/
32B/
32B/JJJ
32A/LLL
32A/
32A/
32A/
32A/
32A/
32A/
32A/JJJ
32A/LLL
32A/
32A/
32A/
32A/
32A/
32A/
32A/JJJ
=47
4G#/
4r
2r
=48
32A/LLL
32A/
32A/
32A/
32A/
32A/
32A/
32A/JJJ
32A/LLL
32A/
32A/
32A/
32A/
32A/
32A/
32A/JJJ
4A#/
4r
=49
2r
32B/LLL
32B/
32B/
32B/
32B/
32B/
32B/
32B/JJJ
32B/LLL
32B/
32B/
32B/
32B/
32B/
32B/
32B/JJJ
=50
4B#/
4r
2r
=51
32c#/LLL
32c#/
32c#/
32c#/
32c#/
32c#/
32c#/
32c#/JJJ
32c#/LLL
32c#/
32c#/
32c#/
32c#/
32c#/
32c#/
32c#/JJJ
4c#/
4r
=52
32B/LLL
32B/
32B/
32B/
32B/
32B/
32B/
32B/JJJ
32B/LLL
32B/
32B/
32B/
32B/
32B/
32B/
32B/JJJ
4A/
4r
=53
32g#/LLL
32g#/
32g#/
32g#/
32g#/
32g#/
32g#/
32g#/JJJ
32g#/LLL
32g#/
32g#/
32g#/
32g#/
32g#/
32g#/
32g#/JJJ
4f#/
4r
=54
32e/LLL
32e/
32e/
32e/
32e/
32e/
32e/
32e/JJJ
32c#/LLL
32c#/
32c#/
32c#/
32c#/
32c#/
32c#/
32c#/JJJ
32G#/LLL
32G#/
32G#/
32G#/
32G#/
32G#/
32G#/
32G#/JJJ
32G#/LLL
32G#/
32G#/
32G#/
32G#/
32G#/
32G#/
32G#/JJJ
=55
32G#/LLL
32G#/
32G#/
32G#/
32G#/
32G#/
32G#/
32G#/JJJ
32G#/LLL
32G#/
32G#/
32G#/
32G#/
32G#/
32G#/
32G#/JJJ
4c#/
8r
8cc#\
=56
8gg#\L
16ff#\LL
16ee\JJ
8ff#\L
8gg#\J
8aa\
4gg#\
8cc#\
=57
8gg#\L
16ff#\LL
16ee\JJ
8ff#\L
8gg#\J
8aa\
4gg#\
8cc#\
=58
8aa\
4gg#\
8ff#\
8ee\L
16dd#\LL
16cc#\JJ
4dd#Tt\
=59
4cc#\
4r
2r
=60
1r
=61
8r
(8cc#'\L
8cc#'\
8cc#'\J)
(8cc#'\L
8cc#'\
8cc#'\
8dd#'\J)
=62
(8ee'\L
8ee'\
8ee#'\
8ee#'\J)
(8ff#'\L
8ff#'\
8ff##'\
8ff##'\J)
=63
[4gg#\
(16gg#\LL]
16aa\)
(16gg#\
16aa\JJ)
[4gg#\
(16gg#\LL]
16aa\)
(16gg#\
16aa\JJ)
=64
[2gg#Tt\
(16gg#\LL]
16aa\)
(16gg#\
16aa\JJ)
(16gg#\LL
16aa\)
(16gg#\
16aa\JJ)
=65
[2gg#Tt\
(32gg#\LLL]
32aa\)
(32gg#\
32aa\JJJ)
(32gg#\LLL
32aa\)
(32gg#\
32aa\JJJ)
(32gg#\LLL
32aa\)
(32gg#\
32aa\JJJ)
(32gg#\LLL
32aa\)
(32gg#\
32aa\JJJ)
=66
8gg#\L
8gg#\J
8gg#\L
16ff#\LL
16gg#\JJ
4.aa\
16aa\LL
16gg#\JJ
=67
8ff#\L
8ff#\J
8ff#\L
16ee\LL
16ff#\JJ
4.gg#\
16gg#\LL
16aa\JJ
=68
8bb\L
8bb\J
8bb\L
16bb\LL
16aa\JJ
8gg#\L
8gg#\J
8gg#\L
16gg#\LL
16aa\JJ
=69
8bb\L
8bb\J
8bb\L
16bb\LL
16aa\JJ
8gg#\L
8gg#\J
8gg#\L
16gg#\LL
16aa\JJ
=70
8bb\L
8bb\J
8bb\L
16aa\LL
16gg#\JJ
4ff#\
4r
=71
1r
=72
1r
=73
1r
=74
1r
=75
1r
=76
8bb\L
16aa\LL
16gg#\JJ
8aa\L
8bb\J
8ccc#\
4bb\
8ee\
=77
8bb\L
16aa\LL
16gg#\JJ
8aa\L
8bb\J
8ccc#\
4bb\
8ee\
=78
8ccc#\
4bb\
8aa\
8gg#\L
16ff#\LL
16ee\JJ
4ff#Tt\
=79
4ee\
8r
8ee\
8bb\L
16aa\LL
16gg#\JJ
8aa\L
8bb\J
=80
8ccc#\
4bb\
8ee\
8bb\L
16aa\LL
16gg#\JJ
8aa\L
8bb\J
=81
8ccc#\
4bb\
8ee\
8ccc#\
4bb\
8aa\
=82
8gg#\L
16ff#\LL
16ee\JJ
4ff#Tt\
2ee;\
==
*-
